src/img/icons/icon-loc.svg

<svg width="14" height="20" viewBox="0 0 14 20" fill="none" xmlns="http://www.w3.org/2000/svg">
<path fill-rule="evenodd" clip-rule="evenodd" d="M6.99737 0.00452C3.13911 0.00452 0.000112 3.25146 0.000112 7.2424C0.000112 12.1954 6.26198 19.4665 6.52862 19.7736C6.77901 20.062 7.21617 20.0616 7.46612 19.7736C7.73276 19.4665 13.9945 12.1954 13.9945 7.2424C13.9945 3.25146 10.8556 0.00452 6.99737 0.00452ZM6.99737 10.8839C5.05623 10.8839 3.47694 9.25038 3.47694 7.2424C3.47694 5.23442 5.05623 3.60088 6.99737 3.60088C8.93851 3.60088 10.5178 5.23442 10.5178 7.2424C10.5178 9.25038 8.93851 10.8839 6.99737 10.8839Z" fill="#FE3E57"/>
</svg>

<svg width="14" height="20" fill="none" xmlns="http://www.w3.org/2000/svg"><path fill-rule="evenodd" clip-rule="evenodd" d="M6.997.005C3.14.005 0 3.25 0 7.242c0 4.953 6.262 12.224 6.529 12.532.25.288.687.288.937 0 .267-.308 6.529-7.579 6.529-12.532 0-3.99-3.14-7.237-6.998-7.237zm0 10.879c-1.94 0-3.52-1.634-3.52-3.642s1.58-3.641 3.52-3.641c1.942 0 3.52 1.633 3.52 3.641s-1.578 3.642-3.52 3.642z" fill="#FE3E57"/></svg>
